X:1
T:Banner, 87.87.88.7
T:Banner, 87.87.88.7
T:Charles Henry Oliphant, 1888
T:Public Domain Courtesy of the Cyber Hymnal™
C:Charles Henry Oliphant, 1888
Z:Public Domain
Z:Courtesy of the Cyber Hymnal™
%%score ( 1 2 ) ( 3 4 )
L:1/8
Q:1/4=110
M:3/4
K:F
V:1 treble 
V:2 treble 
V:3 bass 
V:4 bass 
V:1
 [FA]2 [FA]>[FA] ([FA][EG]) (AB) | [Fc]2 B2 [FA]2 [EG]2 | F2 [DF]2 (FG) (AB) | [FA]4 [EG]2 z2 | %4
 [FA]2 [FA]>[FA] (AG) (A=B) | [Gc]2 [Gd]2 [Ge]2 [Ff]2 | [Ge]2 [Ad]2 (c=B) (AB) | [Fd]4 [Ec]2 z2 | %8
 [EG]2 [EG]>[EG] [EG]2 [EG]2 | [FA]2 F2 [EG]2 [FA]2 | [EB]3 [GB] [FA]2 [CF]2 | %11
 [CE]2 [CF]2 [EG]2 C2 | [B,Fc]3 [CFc] [FB]2 [FA]2 | G4 F4 |] %14
V:2
 x6 F2 | x2 (DE) x4 | F2 F2 F2 x2 | x8 | x4 F2 G2 | x8 | x4 G2 F2 | x8 | x8 | x2 F2 x4 | x8 | %11
 x6 C2 | x8 | (F2 E2) F4 |] %14
V:3
 [F,C]2 [F,C]>[F,C] C2 C2 | [A,C]2 [G,C]2 [F,C]2 [C,B,]2 | [D,A,]2 [B,,B,]2 [A,,C]2 [B,,D]2 | %3
 [C,C]4 [C,C]2 z2 | [F,C]2 [F,C]>[F,C] [F,C]2 [F,D]2 | [E,C]2 [G,=B,]2 C2 [A,C]2 | %6
 [G,C]2 [F,F]2 [G,D]2 [G,D]2 | [G,=B,]4 [C,C]2 z2 | [C,C]2 [C,C]>[C,C] [C,C]2 [C,C]2 | %9
 [F,,F,A,C]2 [A,,F,C]2 [C,G,C]2 [F,C]2 | [G,C]3 [E,C] [F,C]2 [A,C]2 | %11
 [G,B,]2 [F,A,]2 [C,C]2 [B,,G,]2 | [A,,F,]3 [A,,F,] [B,,D]2 [F,C]2 | [C,B,]4 [F,,F,A,]4 |] %14
V:4
 x4 (F,C,) (F,G,) | x8 | x8 | x8 | x8 | x4 C2 x2 | x8 | x8 | x8 | x8 | x8 | x8 | x8 | x8 |] %14

